!!!COM: Haydn, Franz Joseph
!!!OPR: String Quartet in B-flat Major
!!!ONM: Opus 71, No. 1
!!!OTL: Affettuoso 
!!!OMV: 2
!!!SCT: H III:69
!!!SCA: Thematisch-bibliographisches Werkevererzeichnis (A. van Hoboken)
!!!YOR: Trautwein Edition
!!!EED: Frances Bennion
!!!ENC: Frances Bennion
!!!CDT: 1732/3/31/-1809/5/31/
!!!OCY: Österreich
!!!YEC: Copyright (c) 1994, 2000 Center for Computer Assisted Research in the Humanities
!!!YEM: Rights to all derivative editions reserved.
!!!YEM: Refer to licensing agreement for further details.
!!!YEN: United States of America
**kern	**kern	**kern	**kern
*k[b-]	*k[b-]	*k[b-]	*k[b-]
*F:	*F:	*F:	*F:
*clefF	*clefF	*clefC3	*clefF4
*M6/8	*M6/8	*M6/8	*M6/8
*tb48	*tb48	*tb48	*tb48
=1	=1	=1	=1
[2.ff	2.f	8.A	8.F
.	.	16B-	16G
.	.	8c	8A
.	.	8.d	8.B-
.	.	16e	16c
.	.	8f	8d
=2	=2	=2	=2
8ff]	2b-	2g	8.c
16.ee	.	.	.
.	.	.	16d
32dd	.	.	.
8cc	.	.	8e
8.cc	.	.	4f
.	8a	8a	.
16a	.	.	.
8cc	8r	8r	8r
=3	=3	=3	=3
4.f	8.c	8.A	4.r
.	16B-	16G	.
.	8A	8F	.
8f#	4.B-	4.E	4.C
8g	.	.	.
8g	.	.	.
=4	=4	=4	=4
4.g	8.d	8.B-	4.E
.	16c	16A	.
.	8B-	8G	.
8g#	8B	4.F	4.F
8a	8c	.	.
8a	8c	.	.
=5	=5	=5	=5
4.ff	8.cc	8.a	4.r
.	16b-	16g	.
.	8a	8f	.
8ff#	4.b-	4.e	8d-
8gg	.	.	8c
8gg	.	.	8c
=6	=6	=6	=6
4.gg	8.b-	8.g	4.e
.	16cc	16a	.
.	8dd-	8b-	.
8gg#	8dd-	8b-	4.f
8aa	8cc	8a	.
8aa	8cc	8a	.
=7	=7	=7	=7
8.aa	8.ff	8.f	8.D
16gg	16ee	16g	16E
8ff	8dd	8a	8F
8ee	8cc#	8b-	8G
16ff	16dd	16a	16F
16r	16r	16r	16r
16aa	16ff	16f	16D
16r	16r	16r	16r
=8	=8	=8	=8
8.cc	8.e	4g	4G
16dd	16f	.	.
8b	8d	8f	8GG
8cc	8e	8e	8C
8r	4r	4r	4r
8r	.	.	.
=9	=9	=9	=9
8.ee-	8.cc	8.c	8.A-
16dd-	16b-	16d-	16B-
8cc	8a-	8e-	8c
8cc	[4.a-	[4.f	4.d-
8b-	.	.	.
8b-	.	.	.
=10	=10	=10	=10
4b-	2a-]	2f]	4.d
16cc	.	.	.
16b-	.	.	.
4b-	.	.	4.e-
.	8g	8e-	.
8b	8g	8e-	.
=11	=11	=11	=11
4cc	2b-	2g	4.e
16dd-	.	.	.
16cc	.	.	.
4.cc	.	.	4f
.	8a-	8f	.
.	[8cc	8g	8e-
=12	=12	=12	=12
8.ff	8cc]	2f	4.d-
.	8b	.	.
16gg	.	.	.
16aa-	8f	.	.
16b	.	.	.
8.cc	8g	.	8c
.	4r	8e	4r
16cc#	.	.	.
16dd	.	8r	.
16ee	.	.	.
=13	=13	=13	=13
[2.ff	2.f	8.A	8.F
.	.	16B-	16G
.	.	8c	8A
.	.	8.d	8.B-
.	.	16e	16c
.	.	8f	8d
=14	=14	=14	=14
8ff]	2b-	2g	8.c
16.ee	.	.	.
.	.	.	16d
32dd	.	.	.
8cc	.	.	8e
8.cc	.	.	4f
.	8a	8a	.
16a	.	.	.
8cc	8r	8r	8r
=15	=15	=15	=15
4.f	8.c	8.A	4.r
.	16B-	16G	.
.	8A	8F	.
8f#	4.B-	4.E	4.C
8g	.	.	.
8g	.	.	.
=16	=16	=16	=16
8g#	4.c	4.E-	4.FF
8a	.	.	.
8a	.	.	.
8a	8f 8B-	8D	8DD
8b-	8f 8B-	8d 8f	8BB- 8DD
8b-	8f 8B-	8f 8d	8DD 8BB-
=17	=17	=17	=17
8.b-	4f 4B-	4f 4d	4DD 4BB-
32cc	.	.	.
32dd	.	.	.
48ee-	2r	2r	2r
48ff	.	.	.
48gg	.	.	.
48aa	.	.	.
48bb-	.	.	.
48ccc	.	.	.
8ddd	.	.	.
8bb-	.	.	.
8gg	.	.	.
=18	=18	=18	=18
4.ee	8.b-	8.g	4.c
.	16a	16a	.
.	8g	8b-	.
4ff	4f	4a	4d
8r	8r	8r	8r
=19	=19	=19	=19
8.dd	4a	4d	4F#
16cc	.	.	.
8b-	8b-	8d	8G
8cc	8g	8c	8E
8a	8a	8c	8F
16.b-	8g	8d	8BB-
32g	.	.	.
=20	=20	=20	=20
8.f	4c	8.A	4.C
16g	.	16B-	.
8e	8B-	8G	.
8f	8A	8F	8F
8r	4r	4r	4r
8r	.	.	.
=21	=21	=21	=21
8.f	4c	8.A	4.C
16g	.	16B-	.
8e	8B-	8G	.
8f	16A	8F	8F
.	16c	.	.
8r	16B	8A	8F
.	16c	.	.
8r	16B	8A	8F
.	16c	.	.
=22	=22	=22	=22
16r	4.e	4.B-	4.G
16cc	.	.	.
16b	.	.	.
16cc	.	.	.
16b	.	.	.
16cc	.	.	.
32cc	4.f	4.c	4.A
32ff	.	.	.
32ee	.	.	.
32gg	.	.	.
32ff	.	.	.
32aa	.	.	.
32gg	.	.	.
32bb-	.	.	.
16aa	.	.	.
16ccc	.	.	.
=23	=23	=23	=23
16r	4.e	4.B-	4.G
16cc	.	.	.
16b	.	.	.
16cc	.	.	.
16b	.	.	.
16cc	.	.	.
32cc	4.f	4.c	4.A-
32ff	.	.	.
32ee	.	.	.
32gg	.	.	.
32ff	.	.	.
32aa-	.	.	.
32gg	.	.	.
32bb-	.	.	.
16aa-	.	.	.
16ccc	.	.	.
=24	=24	=24	=24
4.ccc	16r	16r	2.B-
.	16ff	16d-	.
.	16ee	16c	.
.	16ff	16d-	.
.	16ee	16c	.
.	16ff	16d-	.
[4.bb-	16r	16r	.
.	16gg-	16e-	.
.	16ff	16d	.
.	16gg-	16e-	.
.	16dd	16f	.
.	16ee-	16g-	.
=25	=25	=25	=25
8bb-]	16r	16r	[2A-
.	16cc	16g-	.
8aa-	16r	16r	.
.	16dd-	16f	.
8gg-	16r	16r	.
.	16cc	16e-	.
8ff	16r	16r	.
.	16g	16d-	.
8ee-	16r	16r	8A-]
.	16g-	16c	.
[8dd-	16r	16r	8B-
.	16f	16B-	.
=26	=26	=26	=26
16dd-]	4.d-	4.B-	4.G-
16e-	.	.	.
16d	.	.	.
16e-	.	.	.
16g-	.	.	.
16b-	.	.	.
16b-	4.g-	4.E-	4.AA-
16d-	.	.	.
16c	.	.	.
16d-	.	.	.
16c	.	.	.
16e-	.	.	.
=27	=27	=27	=27
16d-	4f	4F	4D-
16e-	.	.	.
16f	.	.	.
16g-	.	.	.
16g	2r	2r	2r
16a-	.	.	.
16a	.	.	.
16b-	.	.	.
16b	.	.	.
16cc	.	.	.
16dd-	.	.	.
16ff	.	.	.
=28	=28	=28	=28
16ff	4.d-	4.B-	4.GG-
16e-	.	.	.
16d	.	.	.
16e-	.	.	.
16g-	.	.	.
16b-	.	.	.
16b-	4.g-	4.E-	4.AA-
16d-	.	.	.
16c	.	.	.
16d-	.	.	.
16c	.	.	.
16e-	.	.	.
=29	=29	=29	=29
4d-	16f	16F	4.D-
.	16a-	16f	.
.	16g	16e	.
.	16a-	16f	.
8.r	16g	16e	.
.	16a-	16f	.
.	4.b--	4.g-	4.AA-
16ee-	.	.	.
16dd	.	.	.
16ee-	.	.	.
16gg-	.	.	.
16cc	.	.	.
=30	=30	=30	=30
4dd-	16a-	16f	4.D-
.	16a-	16f	.
.	16g	16e	.
.	16a-	16f	.
8.r	16g	16e	.
.	16a-	16f	.
.	4.b--	4.g-	4.AA-
16ee-	.	.	.
16dd	.	.	.
16ee-	.	.	.
16gg-	.	.	.
16cc	.	.	.
=31	=31	=31	=31
16dd-	[2.a-	[2.f	4.d-
16ff	.	.	.
16ee	.	.	.
16ff	.	.	.
16ee	.	.	.
16ff	.	.	.
16r	.	.	4.c
16ff	.	.	.
16ee	.	.	.
16ff	.	.	.
16ee	.	.	.
16ff	.	.	.
=32	=32	=32	=32
16r	4.a-]	4f]	4.B
16ff	.	.	.
16ee	.	.	.
16ff	.	.	.
16aa-	.	8B	.
16ff	.	.	.
8ee	8g	16c	8c
.	.	16c	.
8r	8r	16B	4r
.	.	16c	.
8cc	8a-	16B	.
.	.	16c	.
=33	=33	=33	=33
8b-	8g	16r	2r
.	.	16c	.
8r	8r	16B	.
.	.	16c	.
8a-	8f	16d-	.
.	.	16B	.
16g	8e	8c	.
16c	.	.	.
16B	4r	8r	8r
16c	.	.	.
16d-	.	8A-	8FF
16c	.	.	.
=34	=34	=34	=34
16r	2.r	8G	8EE
16c	.	.	.
16B	.	8r	8r
16c	.	.	.
16B	.	8F	8DD
16c	.	.	.
32B	.	8E	8CC
32c	.	.	.
32d	.	.	.
32c	.	.	.
32e	.	4r	4r
32d	.	.	.
32f	.	.	.
32e	.	.	.
32g	.	.	.
32f	.	.	.
32a	.	.	.
32g	.	.	.
=35	=35	=35	=35
16b-	2.r	2.r	2.r
16g	.	.	.
16e	.	.	.
16f	.	.	.
16g	.	.	.
16a	.	.	.
16b-	.	.	.
16b	.	.	.
16cc	.	.	.
16cc#	.	.	.
16dd	.	.	.
16ee	.	.	.
=36	=36	=36	=36
[2.ff	2.f	8.A	8.F
.	.	16B-	16G
.	.	8c	8A
.	.	8.d	8.B-
.	.	16e	16c
.	.	8f	8d
=37	=37	=37	=37
8ff]	2b-	2g	8.c
16.ee	.	.	.
.	.	.	16d
32dd	.	.	.
8cc	.	.	8e
8.cc	.	.	4f
.	8a	8a	.
16a	.	.	.
8cc	8r	8r	8r
=38	=38	=38	=38
4.f	8.c	8.A	4.r
.	16B-	16G	.
.	8A	8F	.
8f#	4.B-	4.E	4.C
8g	.	.	.
8g	.	.	.
=39	=39	=39	=39
4.g	8.d	8.B-	4.E
.	16c	16A	.
.	8B-	8G	.
8f#	8B	4.F	4.F
8a	8c	.	.
8a	8c	.	.
=40	=40	=40	=40
4.ff	8.cc	8.a	4.r
.	16b-	16g	.
.	8a	8f	.
8ff#	4.b-	4.e	8d-
8gg	.	.	8c
8gg	.	.	8c
=41	=41	=41	=41
4.gg	8.b-	8.g	4.e
.	16cc	16a	.
.	8dd-	8b-	.
8gg#	8dd-	8b-	4.f
8aa	8cc	8a	.
8aa	8cc	8a	.
=42	=42	=42	=42
8.aa	8.ff	8.f	8.D
16gg	16ee	16g	16E
8ff	8dd	8a	8F
8ee	8cc#	8b-	8G
16ff	16dd	16a	16F
16r	16r	16r	16r
16aa	16ff	16f	16D
16r	16r	16r	16r
=43	=43	=43	=43
8.cc	8.e	4g	4G
16dd	16f	.	.
8b	8d	8f	8GG
8cc	8e	8e	8C
8r	4r	4r	4r
8r	.	.	.
=44	=44	=44	=44
8.ee-	8.cc	8.c	8.A-
16dd-	16b-	16d-	16B-
8cc	8a-	8e-	8c
8cc	[4.a-	[4.f	4.d-
8b-	.	.	.
8b-	.	.	.
=45	=45	=45	=45
4b-	2a-]	2f]	4.d
16cc	.	.	.
16b-	.	.	.
4b-	.	.	4.e-
.	8g	8e-	.
8b	8g	8e-	.
=46	=46	=46	=46
4cc	2b-	2g	4.e
16dd-	.	.	.
16cc	.	.	.
4.cc	.	.	4f
.	8a-	8f	.
.	[8cc	8g	8e-
=47	=47	=47	=47
8.ff	8cc]	2f	4.d-
.	8b	.	.
16gg	.	.	.
16aa-	8f	.	.
16b	.	.	.
8.cc	8g	.	8c
.	4r	8e	4r
16cc	.	.	.
16dd	.	8r	.
16ee	.	.	.
=48	=48	=48	=48
[2.ff	2.f	8.A	8.F
.	.	16B-	16G
.	.	8c	8A
.	.	8.d	8.B-
.	.	16e	16c
.	.	8f	8d
=49	=49	=49	=49
8ff]	2b-	2g	8.c
16.ee	.	.	.
.	.	.	16d
32dd	.	.	.
8cc	.	.	8e
8.cc	.	.	4f
.	8a	8a	.
16a	.	.	.
8cc	8r	8r	8r
=50	=50	=50	=50
4.f	8.c	8.A	4.r
.	16B-	16G	.
.	8A	8F	.
8f#	4.B-	4.E	4.C
8g	.	.	.
8g	.	.	.
=51	=51	=51	=51
8g#	4.c	4.E-	4.FF
8a	.	.	.
8a	.	.	.
8a	8B- 8f	8D	8DD
8b- 8d	8B- 8f	8f 8d	8BB- 8DD
8b- 8d	8f 8B-	8f 8d	8BB- 8DD
=52	=52	=52	=52
8.b- 8.d	4B- 4f	4f 4d	4DD 4BB-
32cc	.	.	.
32dd	.	.	.
48ee-	2r	2r	2r
48ff	.	.	.
48gg	.	.	.
48aa	.	.	.
48bb-	.	.	.
48ccc	.	.	.
8ddd	.	.	.
8bb-	.	.	.
8gg	.	.	.
=53	=53	=53	=53
4.ee	8.b-	8.g	4.c
.	16a	16a	.
.	8g	8b-	.
4ff	4f	4a	4d
8r	8r	8r	8r
=54	=54	=54	=54
8.dd	4a	4d	4F#
16cc	.	.	.
8b-	8b-	8d	8G
8cc	8g	8c	8E
8a	8a	8c	8F
16.b-	8g	8d	8BB-
32g	.	.	.
=55	=55	=55	=55
8.f	4c	8.A	4.C
16g	.	16B-	.
8e	8B-	8G	.
16f	8A	16F	4FF
16c	.	16A	.
16B	4r	16G#	.
16c	.	16A	.
16B	.	16G#	8r
16c	.	16A	.
=56	=56	=56	=56
4.G 4.e	16r	16B-	4.C
.	16d-	16B-	.
.	16c	16A	.
.	16d-	16B-	.
.	16c	16A	.
.	16d-	16B-	.
16A 16f	4c	16A	4FF
16c	.	16A	.
16B	.	16G#	.
16c	.	16A	.
16B	8r	16G#	8r
16c	.	16A	.
=57	=57	=57	=57
4.G 4.e	16r	16B-	4.C
.	16d-	16B-	.
.	16c	16A	.
.	16d-	16B-	.
.	16c	16A	.
.	16d-	16B-	.
8A 8f	8c	8A	16r
.	.	.	16E
8r	8r	8r	16F
.	.	.	16BB
8a	8c	8f	16C
.	.	.	16EE
=58	=58	=58	=58
8f	8A	8f	8FF
8r	8r	8r	8r
8f	8A	8c	8FF
8f	8A	8c	8FF
8r	4r	4r	4r
8r	.	.	.
==	==	==	==
*-	*-	*-	*-
!!!RWG1: This file contains only pitch and duration data.
!!!RWG2: Transposing instruments are not transposed.
!!!RWG3: Spines may have incompatible meters.
!!!RWG4: Durations of rests and tied notes may be interpreted.
!!!RWG: Key is interpreted using the Humdrum key tool.
!!!GTL: 6 Quartetti ("Apponyi")
!!!AFT: stage1
!!!END: 1997/04/15
!!format changes:
!!content changes:
!!public access: complete
!!!KEY: 59707624
!!!EMD: Converted from MuseData to Humdrum Dec 16, 2000, by Andreas Kornstaedt using muse2kern.
